src/images_karasa_jaga_svg/sw/res/redline_inserted.svg

<svg height="12" viewBox="0 0 3.1749999 3.1750001" width="12" xmlns="http://www.w3.org/2000/svg" xmlns:xlink="http://www.w3.org/1999/xlink"><linearGradient id="a" gradientTransform="scale(1.0975951 .9110828)" gradientUnits="userSpaceOnUse" x1="26.091133" x2="31.500689" xlink:href="#g" y1="14.856744" y2="14.856744"/><linearGradient id="b" gradientUnits="userSpaceOnUse" spreadMethod="reflect" x1="88.606247" x2="91.575104" y1="13.510336" y2="13.510336"><stop offset="0" stop-color="#c8ff87"/><stop offset="1" stop-color="#abff87" stop-opacity="0"/></linearGradient><radialGradient id="c" cx="84.903702" cy="-130.14005" gradientTransform="matrix(.30794145 .30794145 -.30794145 .30794145 46.491338 107.57052)" gradientUnits="userSpaceOnUse" r="57.039597" xlink:href="#d"/><linearGradient id="d"><stop offset="0" stop-color="#011701"/><stop offset=".80671918" stop-color="#145703"/><stop offset="1" stop-color="#2fa207" stop-opacity=".384314"/></linearGradient><radialGradient id="e" cx="43.084476" cy="-121.92532" gradientTransform="matrix(.30347528 .31234377 -.3628951 .35259129 39.983519 112.82479)" gradientUnits="userSpaceOnUse" r="57.039597" xlink:href="#d"/><radialGradient id="f" cx="51.991096" cy="-78.028419" gradientTransform="matrix(.28232256 .33158686 -.56115095 .47778001 28.065755 119.5934)" gradientUnits="userSpaceOnUse" r="57.039597" xlink:href="#d"/><linearGradient id="g"><stop offset="0" stop-color="#fff"/><stop offset="1" stop-color="#fff" stop-opacity="0"/></linearGradient><filter id="h" height="1.277481" width="1.279832" x="-.139916" y="-.138741"><feGaussianBlur stdDeviation=".28784801"/></filter><linearGradient id="i" gradientUnits="userSpaceOnUse" x1="304.88663" x2="345.62039" y1="385.86127" y2="384.62384"><stop offset="0" stop-color="#765c44"/><stop offset="1" stop-color="#765c44" stop-opacity="0"/></linearGradient><linearGradient id="j" gradientUnits="userSpaceOnUse" spreadMethod="reflect" x1="31.606251" x2="34.575108" y1="13.510336" y2="13.510336"><stop offset="0" stop-color="#fff"/><stop offset="1" stop-color="#790000" stop-opacity="0"/></linearGradient><radialGradient id="k" cx="50.424522" cy="-81.945961" gradientTransform="matrix(.30794145 .30794145 -.30794145 .30794145 46.491337 107.57052)" gradientUnits="userSpaceOnUse" r="50.15279"><stop offset="0" stop-color="#7ae91e" stop-opacity=".996078"/><stop offset="1" stop-color="#62c916"/></radialGradient><filter id="l" color-interpolation-filters="sRGB" height="1.024" width="1.024" x="-.012" y="-.012"><feGaussianBlur stdDeviation=".28192153"/></filter><linearGradient id="m" gradientUnits="userSpaceOnUse" x1="84.745605" x2="97.636749" xlink:href="#g" y1="48.278454" y2="110.57732"/><g transform="matrix(.03892461 0 0 .03892461 -2.015461 -2.015117)"><path d="m87.253944 56.987288c-4.022451-.000117-7.375114 3.352553-7.375 7.375v15.509765h-15.507812c-4.019003-.000116-7.375117 3.350604-7.375 7.373047v10.619139c-.000117 4.022441 3.355991 7.373171 7.375 7.373051h15.507812v15.50976c-.000121 4.02245 3.355991 7.37317 7.375 7.37305h10.617186c4.01901.00012 7.37512-3.35059 7.375-7.37305v-15.50976h15.50781c4.01903.00012 7.37513-3.3506 7.375-7.373051v-10.619139c.00013-4.02246-3.35599-7.373163-7.375-7.373047h-15.50781v-15.509765c.00012-4.022461-3.35255-7.375117-7.375-7.375z" fill="#033d03"/><path d="m123.75362 87.246019c.00005-1.656397-1.34274-2.99918-2.99913-2.999132h-19.88392v-19.884771c.00005-1.656396-1.34274-2.99918-2.99913-2.999132l-10.617743.000005c-1.656393-.000048-2.999178 1.342735-2.999131 2.999127v19.884771h-19.88392c-1.656396-.000048-2.99918 1.342735-2.999132 2.999132v10.61774c-.000048 1.6564 1.342736 2.999181 2.999132 2.999131h19.88392v19.88392c-.00005 1.6564 1.342736 2.99918 2.999132 2.99913h10.617742c1.65639.00005 2.99918-1.34273 2.99913-2.99913v-19.88392h19.88392c1.6564.00005 2.99918-1.342741 2.99913-2.999131z" fill="#1f5623" fill-opacity=".905882"/><path d="m123.75362 87.246019c.00005-1.656397-1.34274-2.99918-2.99913-2.999132h-19.88392v-19.884771c.00005-1.656396-1.34274-2.99918-2.99913-2.999132l-10.617743.000005c-1.656393-.000048-2.999178 1.342735-2.999131 2.999127v19.884771h-19.88392c-1.656396-.000048-2.99918 1.342735-2.999132 2.999132v10.61774c-.000048 1.6564 1.342736 2.999181 2.999132 2.999131h19.88392v19.88392c-.00005 1.6564 1.342736 2.99918 2.999132 2.99913h10.617742c1.65639.00005 2.99918-1.34273 2.99913-2.99913v-19.88392h19.88392c1.6564.00005 2.99918-1.342741 2.99913-2.999131z" fill="url(#c)"/><path d="m123.75362 87.246019c.00005-1.656397-1.34274-2.99918-2.99913-2.999132h-19.88392v-19.884771c.00005-1.656396-1.34274-2.99918-2.99913-2.999132l-10.617743.000005c-1.656393-.000048-2.999178 1.342735-2.999131 2.999127v19.884771h-19.88392c-1.656396-.000048-2.99918 1.342735-2.999132 2.999132v10.61774c-.000048 1.6564 1.342736 2.999181 2.999132 2.999131h19.88392v19.88392c-.00005 1.6564 1.342736 2.99918 2.999132 2.99913h10.617742c1.65639.00005 2.99918-1.34273 2.99913-2.99913v-19.88392h19.88392c1.6564.00005 2.99918-1.342741 2.99913-2.999131z" fill="#066704"/><path d="m123.75362 87.246019c.00005-1.656397-1.34274-2.99918-2.99913-2.999132h-19.88392v-19.884771c.00005-1.656396-1.34274-2.99918-2.99913-2.999132l-10.617743.000005c-1.656393-.000048-2.999178 1.342735-2.999131 2.999127v19.884771h-19.88392c-1.656396-.000048-2.99918 1.342735-2.999132 2.999132v10.61774c-.000048 1.6564 1.342736 2.999181 2.999132 2.999131h19.88392v19.88392c-.00005 1.6564 1.342736 2.99918 2.999132 2.99913h10.617742c1.65639.00005 2.99918-1.34273 2.99913-2.99913v-19.88392h19.88392c1.6564.00005 2.99918-1.342741 2.99913-2.999131z" fill="url(#e)"/><path d="m123.75362 87.246019c.00005-1.656397-1.34274-2.99918-2.99913-2.999132h-19.88392v-19.884771c.00005-1.656396-1.34274-2.99918-2.99913-2.999132l-10.617743.000005c-1.656393-.000048-2.999178 1.342735-2.999131 2.999127v19.884771h-19.88392c-1.656396-.000048-2.99918 1.342735-2.999132 2.999132v10.61774c-.000048 1.6564 1.342736 2.999181 2.999132 2.999131h19.88392v19.88392c-.00005 1.6564 1.342736 2.99918 2.999132 2.99913h10.617742c1.65639.00005 2.99918-1.34273 2.99913-2.99913v-19.88392h19.88392c1.6564.00005 2.99918-1.342741 2.99913-2.999131z" fill="url(#f)"/><g fill-rule="evenodd"><path d="m31.7 16 2.875-3.375c-1.051205-1.695758-3.935136-2.288018-5.9375-.3125l2.8125 3.375z" fill="url(#a)" filter="url(#h)" opacity=".498127" transform="matrix(-.64954358 .64954358 .6557809 .6557809 76.701663 57.763298)"/><path d="m31.7 16 2.875-3.375c-1.051205-1.695758-3.935136-2.288018-5.9375-.3125l2.8125 3.375z" fill="url(#a)" filter="url(#h)" opacity=".790262" transform="matrix(-.6476361 -.6476361 .64147625 -.64147625 99.166281 149.43433)"/><path d="m31.7 16 2.875-3.375c-1.051205-1.695758-3.935136-2.288018-5.9375-.3125l2.8125 3.375z" fill="url(#i)" filter="url(#h)" opacity=".498127" transform="matrix(-.58819378 .58819378 -.59384198 -.59384198 124.77757 109.70474)"/><path d="m88.7 16 2.875-3.375c-1.051205-1.695758-3.935136-2.288018-5.9375-.3125l2.8125 3.375z" fill="url(#b)" filter="url(#h)" opacity=".790262" transform="matrix(-.59384198 -.59384198 .58819378 -.58819378 109.16011 158.42153)"/><path d="m31.7 16 2.875-3.375c-1.051205-1.695758-3.935136-2.288018-5.9375-.3125l2.8125 3.375z" fill="url(#j)" filter="url(#h)" opacity=".790262" transform="matrix(-.54004786 -.54004786 -.53491131 .53491131 144.9962 96.825516)"/><path d="m88.7 16 2.875-3.375c-1.051205-1.695758-3.935136-2.288018-5.9375-.3125l2.8125 3.375z" fill="url(#b)" filter="url(#h)" opacity=".790262" transform="matrix(-.55444337 -.55444337 -.5491699 .5491699 154.52392 106.08385)"/></g><path d="m120.75449 87.246019h-22.88305v-22.883898l-10.617741-.000005-.000001 22.883903h-22.883052v10.61774h22.883052v22.883051h10.617742v-22.883051h22.88305z" fill="url(#k)"/><path d="m97.87185 64.362208-10.617965-.000005v22.884181l-22.883579-.000435v10.61797h22.882977l.000001 22.882971h10.617966v-22.882971l22.88298-.00001-.00001-10.617956h-22.88297zm-.75422.754216-.00061 22.129359c-.00004.41656.33766.754256.75422.754217h22.12876v9.109529h-22.12876c-.41656-.00004-.75426.33766-.75422.75422v22.128761h-9.10953v-22.128761c.00004-.41656-.337657-.75426-.754216-.75422h-22.12876v-9.109534l22.129362.000436c.416558.000039.754257-.337657.754216-.754216v-22.129961z" fill="#eef4ca" fill-opacity=".779412" filter="url(#l)"/><path d="m87.253944 64.362288v22.882812h-22.882812v6.925781a65.433395 38.789856 0 0 0 17.794922 1.498047 65.433395 38.789856 0 0 0 38.587886-7.521484v-.902344h-22.88281v-22.882812z" fill="url(#m)"/></g></svg>

<?xml version="1.0" encoding="UTF-8" standalone="no"?>
<!-- Created with Inkscape (http://www.inkscape.org/) -->

<svg
   xmlns:dc="http://purl.org/dc/elements/1.1/"
   xmlns:cc="http://creativecommons.org/ns#"
   xmlns:rdf="http://www.w3.org/1999/02/22-rdf-syntax-ns#"
   xmlns:svg="http://www.w3.org/2000/svg"
   xmlns="http://www.w3.org/2000/svg"
   xmlns:xlink="http://www.w3.org/1999/xlink"
   xmlns:sodipodi="http://sodipodi.sourceforge.net/DTD/sodipodi-0.dtd"
   xmlns:inkscape="http://www.inkscape.org/namespaces/inkscape"
   width="128"
   height="128"
   viewBox="0 0 33.866666 33.866668"
   version="1.1"
   id="svg8"
   inkscape:version="0.92.3 (unknown)"
   sodipodi:docname="redline_inserted.svg"
   inkscape:export-filename="/home/rizmut/Dokumen/Rizmut/Github/libreoffice-style-karasa-jaga/build/images_karasa_jaga/sw/res/redline_inserted.png"
   inkscape:export-xdpi="9"
   inkscape:export-ydpi="9">
  <defs
     id="defs2">
    <radialGradient
       id="c"
       cx="84.903702"
       cy="-130.14005"
       gradientTransform="matrix(0.30794145,0.30794145,-0.30794145,0.30794145,46.491338,107.57052)"
       gradientUnits="userSpaceOnUse"
       r="57.039597"
       xlink:href="#d" />
    <linearGradient
       id="d">
      <stop
         offset="0"
         stop-color="#011701"
         id="stop2166" />
      <stop
         offset=".80671918"
         stop-color="#145703"
         id="stop2168" />
      <stop
         offset="1"
         stop-color="#2fa207"
         stop-opacity=".384314"
         id="stop2170" />
    </linearGradient>
    <radialGradient
       id="e"
       cx="43.084476"
       cy="-121.92532"
       gradientTransform="matrix(0.30347528,0.31234377,-0.3628951,0.35259129,39.983519,112.82479)"
       gradientUnits="userSpaceOnUse"
       r="57.039597"
       xlink:href="#d" />
    <radialGradient
       id="f"
       cx="51.991096"
       cy="-78.028419"
       gradientTransform="matrix(0.28232256,0.33158686,-0.56115095,0.47778001,28.065755,119.5934)"
       gradientUnits="userSpaceOnUse"
       r="57.039597"
       xlink:href="#d" />
    <linearGradient
       inkscape:collect="always"
       xlink:href="#h"
       id="linearGradient3035"
       gradientUnits="userSpaceOnUse"
       gradientTransform="scale(1.0975951,0.9110828)"
       x1="26.091133"
       y1="14.856744"
       x2="31.500689"
       y2="14.856744" />
    <linearGradient
       id="h">
      <stop
         offset="0"
         stop-color="#fff"
         id="stop2176" />
      <stop
         offset="1"
         stop-color="#fff"
         stop-opacity="0"
         id="stop2178" />
    </linearGradient>
    <filter
       id="i"
       height="1.277481"
       width="1.279832"
       x="-0.139916"
       y="-0.138741">
      <feGaussianBlur
         stdDeviation=".28784801"
         id="feGaussianBlur2181" />
    </filter>
    <filter
       id="filter3344"
       height="1.277481"
       width="1.279832"
       x="-0.139916"
       y="-0.138741">
      <feGaussianBlur
         stdDeviation=".28784801"
         id="feGaussianBlur3342" />
    </filter>
    <linearGradient
       id="j"
       gradientUnits="userSpaceOnUse"
       x1="304.88663"
       x2="345.62039"
       y1="385.86127"
       y2="384.62384">
      <stop
         offset="0"
         stop-color="#765c44"
         id="stop2184" />
      <stop
         offset="1"
         stop-color="#765c44"
         stop-opacity="0"
         id="stop2186" />
    </linearGradient>
    <filter
       id="filter3351"
       height="1.277481"
       width="1.279832"
       x="-0.139916"
       y="-0.138741">
      <feGaussianBlur
         stdDeviation=".28784801"
         id="feGaussianBlur3349" />
    </filter>
    <linearGradient
       inkscape:collect="always"
       xlink:href="#k"
       id="linearGradient3037"
       gradientUnits="userSpaceOnUse"
       x1="88.606247"
       y1="13.510336"
       x2="91.575104"
       y2="13.510336"
       spreadMethod="reflect" />
    <linearGradient
       id="k"
       gradientUnits="userSpaceOnUse"
       spreadMethod="reflect"
       x1="88.606247"
       x2="91.575104"
       y1="13.510336"
       y2="13.510336">
      <stop
         offset="0"
         stop-color="#c8ff87"
         id="stop2189" />
      <stop
         offset="1"
         stop-color="#abff87"
         stop-opacity="0"
         id="stop2191" />
    </linearGradient>
    <filter
       id="filter3359"
       height="1.277481"
       width="1.279832"
       x="-0.139916"
       y="-0.138741">
      <feGaussianBlur
         stdDeviation=".28784801"
         id="feGaussianBlur3357" />
    </filter>
    <linearGradient
       id="l"
       gradientUnits="userSpaceOnUse"
       spreadMethod="reflect"
       x1="31.606251"
       x2="34.575108"
       y1="13.510336"
       y2="13.510336">
      <stop
         offset="0"
         stop-color="#fff"
         id="stop2194" />
      <stop
         offset="1"
         stop-color="#790000"
         stop-opacity="0"
         id="stop2196" />
    </linearGradient>
    <filter
       id="filter3366"
       height="1.277481"
       width="1.279832"
       x="-0.139916"
       y="-0.138741">
      <feGaussianBlur
         stdDeviation=".28784801"
         id="feGaussianBlur3364" />
    </filter>
    <filter
       id="filter3377"
       height="1.277481"
       width="1.279832"
       x="-0.139916"
       y="-0.138741">
      <feGaussianBlur
         stdDeviation=".28784801"
         id="feGaussianBlur3375" />
    </filter>
    <radialGradient
       id="m"
       cx="50.424522"
       cy="-81.945961"
       gradientTransform="matrix(0.30794145,0.30794145,-0.30794145,0.30794145,46.491337,107.57052)"
       gradientUnits="userSpaceOnUse"
       r="50.15279">
      <stop
         offset="0"
         stop-color="#7ae91e"
         stop-opacity=".996078"
         id="stop2199" />
      <stop
         offset="1"
         stop-color="#62c916"
         id="stop2201" />
    </radialGradient>
    <filter
       style="color-interpolation-filters:sRGB"
       id="n"
       height="1.024"
       width="1.024"
       x="-0.012"
       y="-0.012">
      <feGaussianBlur
         stdDeviation=".28192153"
         id="feGaussianBlur2204" />
    </filter>
    <linearGradient
       id="o"
       gradientUnits="userSpaceOnUse"
       x1="84.745605"
       x2="97.636749"
       xlink:href="#h"
       y1="48.278454"
       y2="110.57732" />
    <linearGradient
       inkscape:collect="always"
       xlink:href="#h"
       id="linearGradient3543"
       gradientUnits="userSpaceOnUse"
       gradientTransform="scale(1.0975951,0.9110828)"
       x1="26.091133"
       y1="14.856744"
       x2="31.500689"
       y2="14.856744" />
    <linearGradient
       inkscape:collect="always"
       xlink:href="#k"
       id="linearGradient3545"
       gradientUnits="userSpaceOnUse"
       x1="88.606247"
       y1="13.510336"
       x2="91.575104"
       y2="13.510336"
       spreadMethod="reflect" />
  </defs>
  <sodipodi:namedview
     id="base"
     pagecolor="#ffffff"
     bordercolor="#666666"
     borderopacity="1.0"
     inkscape:pageopacity="0.0"
     inkscape:pageshadow="2"
     inkscape:zoom="2.8"
     inkscape:cx="88.339362"
     inkscape:cy="45.147186"
     inkscape:document-units="mm"
     inkscape:current-layer="layer1"
     showgrid="true"
     units="px"
     inkscape:window-width="1366"
     inkscape:window-height="706"
     inkscape:window-x="0"
     inkscape:window-y="0"
     inkscape:window-maximized="1">
    <inkscape:grid
       type="xygrid"
       id="grid1379"
       spacingx="2.8222231"
       spacingy="2.8222231" />
  </sodipodi:namedview>
  <metadata
     id="metadata5">
    <rdf:RDF>
      <cc:Work
         rdf:about="">
        <dc:format>image/svg+xml</dc:format>
        <dc:type
           rdf:resource="http://purl.org/dc/dcmitype/StillImage" />
        <dc:title></dc:title>
      </cc:Work>
    </rdf:RDF>
  </metadata>
  <g
     inkscape:label="Layer 1"
     inkscape:groupmode="layer"
     id="layer1"
     transform="translate(0,-263.13332)">
    <g
       transform="matrix(0.41519586,0,0,0.41519586,-21.498249,241.63874)"
       id="g3286">
      <path
         style="fill:#033d03"
         inkscape:connector-curvature="0"
         id="path2448"
         d="m 87.253944,56.987288 c -4.022451,-1.17e-4 -7.375114,3.352553 -7.375,7.375 V 79.872053 H 64.371132 c -4.019003,-1.16e-4 -7.375117,3.350604 -7.375,7.373047 v 10.619139 c -1.17e-4,4.022441 3.355991,7.373171 7.375,7.373051 h 15.507812 v 15.50976 c -1.21e-4,4.02245 3.355991,7.37317 7.375,7.37305 H 97.87113 c 4.01901,1.2e-4 7.37512,-3.35059 7.375,-7.37305 v -15.50976 h 15.50781 c 4.01903,1.2e-4 7.37513,-3.3506 7.375,-7.373051 V 87.2451 c 1.3e-4,-4.02246 -3.35599,-7.373163 -7.375,-7.373047 H 105.24613 V 64.362288 c 1.2e-4,-4.022461 -3.35255,-7.375117 -7.375,-7.375 z" />
      <path
         style="fill:#1f5623;fill-opacity:0.90588199"
         inkscape:connector-curvature="0"
         id="path2450"
         d="m 123.75362,87.246019 c 5e-5,-1.656397 -1.34274,-2.99918 -2.99913,-2.999132 H 100.87057 V 64.362116 c 5e-5,-1.656396 -1.34274,-2.99918 -2.99913,-2.999132 l -10.617743,5e-6 c -1.656393,-4.8e-5 -2.999178,1.342735 -2.999131,2.999127 v 19.884771 h -19.88392 c -1.656396,-4.8e-5 -2.99918,1.342735 -2.999132,2.999132 v 10.61774 c -4.8e-5,1.6564 1.342736,2.999181 2.999132,2.999131 h 19.88392 v 19.88392 c -5e-5,1.6564 1.342736,2.99918 2.999132,2.99913 H 97.87144 c 1.65639,5e-5 2.99918,-1.34273 2.99913,-2.99913 v -19.88392 h 19.88392 c 1.6564,5e-5 2.99918,-1.342741 2.99913,-2.999131 z" />
      <path
         inkscape:connector-curvature="0"
         style="fill:url(#c)"
         id="path2452"
         d="m 123.75362,87.246019 c 5e-5,-1.656397 -1.34274,-2.99918 -2.99913,-2.999132 H 100.87057 V 64.362116 c 5e-5,-1.656396 -1.34274,-2.99918 -2.99913,-2.999132 l -10.617743,5e-6 c -1.656393,-4.8e-5 -2.999178,1.342735 -2.999131,2.999127 v 19.884771 h -19.88392 c -1.656396,-4.8e-5 -2.99918,1.342735 -2.999132,2.999132 v 10.61774 c -4.8e-5,1.6564 1.342736,2.999181 2.999132,2.999131 h 19.88392 v 19.88392 c -5e-5,1.6564 1.342736,2.99918 2.999132,2.99913 H 97.87144 c 1.65639,5e-5 2.99918,-1.34273 2.99913,-2.99913 v -19.88392 h 19.88392 c 1.6564,5e-5 2.99918,-1.342741 2.99913,-2.999131 z" />
      <path
         style="fill:#066704"
         inkscape:connector-curvature="0"
         id="path2454"
         d="m 123.75362,87.246019 c 5e-5,-1.656397 -1.34274,-2.99918 -2.99913,-2.999132 H 100.87057 V 64.362116 c 5e-5,-1.656396 -1.34274,-2.99918 -2.99913,-2.999132 l -10.617743,5e-6 c -1.656393,-4.8e-5 -2.999178,1.342735 -2.999131,2.999127 v 19.884771 h -19.88392 c -1.656396,-4.8e-5 -2.99918,1.342735 -2.999132,2.999132 v 10.61774 c -4.8e-5,1.6564 1.342736,2.999181 2.999132,2.999131 h 19.88392 v 19.88392 c -5e-5,1.6564 1.342736,2.99918 2.999132,2.99913 H 97.87144 c 1.65639,5e-5 2.99918,-1.34273 2.99913,-2.99913 v -19.88392 h 19.88392 c 1.6564,5e-5 2.99918,-1.342741 2.99913,-2.999131 z" />
      <path
         inkscape:connector-curvature="0"
         style="fill:url(#e)"
         id="path2456"
         d="m 123.75362,87.246019 c 5e-5,-1.656397 -1.34274,-2.99918 -2.99913,-2.999132 H 100.87057 V 64.362116 c 5e-5,-1.656396 -1.34274,-2.99918 -2.99913,-2.999132 l -10.617743,5e-6 c -1.656393,-4.8e-5 -2.999178,1.342735 -2.999131,2.999127 v 19.884771 h -19.88392 c -1.656396,-4.8e-5 -2.99918,1.342735 -2.999132,2.999132 v 10.61774 c -4.8e-5,1.6564 1.342736,2.999181 2.999132,2.999131 h 19.88392 v 19.88392 c -5e-5,1.6564 1.342736,2.99918 2.999132,2.99913 H 97.87144 c 1.65639,5e-5 2.99918,-1.34273 2.99913,-2.99913 v -19.88392 h 19.88392 c 1.6564,5e-5 2.99918,-1.342741 2.99913,-2.999131 z" />
      <path
         inkscape:connector-curvature="0"
         style="fill:url(#f)"
         id="path2458"
         d="m 123.75362,87.246019 c 5e-5,-1.656397 -1.34274,-2.99918 -2.99913,-2.999132 H 100.87057 V 64.362116 c 5e-5,-1.656396 -1.34274,-2.99918 -2.99913,-2.999132 l -10.617743,5e-6 c -1.656393,-4.8e-5 -2.999178,1.342735 -2.999131,2.999127 v 19.884771 h -19.88392 c -1.656396,-4.8e-5 -2.99918,1.342735 -2.999132,2.999132 v 10.61774 c -4.8e-5,1.6564 1.342736,2.999181 2.999132,2.999131 h 19.88392 v 19.88392 c -5e-5,1.6564 1.342736,2.99918 2.999132,2.99913 H 97.87144 c 1.65639,5e-5 2.99918,-1.34273 2.99913,-2.99913 v -19.88392 h 19.88392 c 1.6564,5e-5 2.99918,-1.342741 2.99913,-2.999131 z" />
      <g
         style="fill-rule:evenodd"
         id="g2472">
        <path
           inkscape:connector-curvature="0"
           style="opacity:0.498127;fill:url(#linearGradient3543);filter:url(#i)"
           id="path2460"
           transform="matrix(-0.64954358,0.64954358,0.6557809,0.6557809,76.701663,57.763298)"
           d="m 31.7,16 2.875,-3.375 c -1.051205,-1.695758 -3.935136,-2.288018 -5.9375,-0.3125 l 2.8125,3.375 z" />
        <path
           inkscape:connector-curvature="0"
           style="opacity:0.79026196;fill:url(#linearGradient3035);filter:url(#i)"
           id="path2462"
           transform="matrix(-0.6476361,-0.6476361,0.64147625,-0.64147625,99.166281,149.43433)"
           d="m 31.7,16 2.875,-3.375 c -1.051205,-1.695758 -3.935136,-2.288018 -5.9375,-0.3125 l 2.8125,3.375 z" />
        <path
           inkscape:connector-curvature="0"
           style="opacity:0.498127;fill:url(#j);filter:url(#i)"
           id="path2464"
           transform="matrix(-0.58819378,0.58819378,-0.59384198,-0.59384198,124.77757,109.70474)"
           d="m 31.7,16 2.875,-3.375 c -1.051205,-1.695758 -3.935136,-2.288018 -5.9375,-0.3125 l 2.8125,3.375 z" />
        <path
           inkscape:connector-curvature="0"
           style="opacity:0.79026196;fill:url(#linearGradient3545);filter:url(#i)"
           id="path2466"
           transform="matrix(-0.59384198,-0.59384198,0.58819378,-0.58819378,109.16011,158.42153)"
           d="m 88.7,16 2.875,-3.375 c -1.051205,-1.695758 -3.935136,-2.288018 -5.9375,-0.3125 l 2.8125,3.375 z" />
        <path
           inkscape:connector-curvature="0"
           style="opacity:0.79026196;fill:url(#l);filter:url(#i)"
           id="path2468"
           transform="matrix(-0.54004786,-0.54004786,-0.53491131,0.53491131,144.9962,96.825516)"
           d="m 31.7,16 2.875,-3.375 c -1.051205,-1.695758 -3.935136,-2.288018 -5.9375,-0.3125 l 2.8125,3.375 z" />
        <path
           inkscape:connector-curvature="0"
           style="opacity:0.79026196;fill:url(#linearGradient3037);filter:url(#i)"
           id="path2470"
           transform="matrix(-0.55444337,-0.55444337,-0.5491699,0.5491699,154.52392,106.08385)"
           d="m 88.7,16 2.875,-3.375 c -1.051205,-1.695758 -3.935136,-2.288018 -5.9375,-0.3125 l 2.8125,3.375 z" />
      </g>
      <path
         inkscape:connector-curvature="0"
         style="fill:url(#m)"
         id="path2474"
         d="M 120.75449,87.246019 H 97.87144 V 64.362121 l -10.617741,-5e-6 -10e-7,22.883903 H 64.370646 v 10.61774 H 87.253698 V 120.74681 H 97.87144 V 97.863759 h 22.88305 z" />
      <path
         style="fill:#eef4ca;fill-opacity:0.77941165;filter:url(#n)"
         inkscape:connector-curvature="0"
         id="path2476"
         d="m 97.87185,64.362208 -10.617965,-5e-6 v 22.884181 l -22.883579,-4.35e-4 v 10.61797 h 22.882977 l 10e-7,22.882971 H 97.87125 V 97.863919 l 22.88298,-10e-6 -1e-5,-10.617956 H 97.87125 Z m -0.75422,0.754216 -6.1e-4,22.129359 c -4e-5,0.41656 0.33766,0.754256 0.75422,0.754217 H 120 v 9.109529 H 97.87124 c -0.41656,-4e-5 -0.75426,0.33766 -0.75422,0.75422 V 119.99251 H 88.00749 V 97.863749 c 4e-5,-0.41656 -0.337657,-0.75426 -0.754216,-0.75422 h -22.12876 v -9.109534 l 22.129362,4.36e-4 c 0.416558,3.9e-5 0.754257,-0.337657 0.754216,-0.754216 V 65.116254 Z" />
      <path
         inkscape:connector-curvature="0"
         style="fill:url(#o)"
         id="path2478"
         d="M 87.253944,64.362288 V 87.2451 H 64.371132 v 6.925781 a 65.433395,38.789856 0 0 0 17.794922,1.498047 65.433395,38.789856 0 0 0 38.587886,-7.521484 V 87.2451 H 97.87113 V 64.362288 Z" />
    </g>
  </g>
</svg>
